X: 4701
T: Boys In The Bunker, The
R: polka
M: 2/4
K: Eminor
|:EB BG|FG AF|GA Bc|BA GF|
EB BG|FG AB/^c/|dB AF|1 GE FD:|2 GE EG||
|:B2 GB|A2 FA|GA Bc|BA GB|
dA BG|AF DE/F/|GB AF|1 GE EG:|2 GE FD||

